X: 37509
T: Sligo, The
R: reel
M: 4/4
K: Adorian
cBcA BcBG|AcBA G~E3|~c3A B2 GA|BedB A2 AB|
~c3A ~B3G|AcBA ~GE3|GABd efge|1 dBGB cAAB:|2 dBGB cA B/c/d||
eA A/A/A edef|gedB GABd|eA A/A/A edef|gedB BABd|
eA A/A/A edef|gedB GABd|ed e/f/g a2 ba|gedB A2 B/c/d:|
ea a/a/a b2 af|gedB BAAd|ea a/a/a bgaf|gedB GA B/c/d|
ea a/a/a bgaf|gedB BA B/c/d|edeg a2 ba|gedB BAAd|
ea a/a/a b2 af|gedB BAAd|ea a/a/a bgaf|gedB GA B/c/d|
ea a/a/a bgaf|gedB ABAG|~c3A ~B3d|gedB A2 AB||

